X: 19
T: O'Sullivan's March
T: The Rock and Wee Pickle Tow
R: jig
M: 6/8
L: 1/8
K: Gmaj
   D | "G" GBA ABd         | "Am" edB A2 G        | "G" GBA B2G | AGG GED       |
       "G" GBA ABd         | "Am" edB A2 G        | "G" GBA B2G | AGG G2       :|
|: g | "Am" e2g e2g        | ege edB              | "G" ded dBd | deB "Em" BAG  |
       "Am" cBc "D/F#" dcd | "C/B" e/f/gB "Am" A2G | "G" GBA B2G | AGG G2      :|

